; generated by Slic3r 1.2.9 on 2017-03-08 at 10:20:33

; external perimeters extrusion width = 0.40mm
; perimeters extrusion width = 0.48mm
; infill extrusion width = 0.48mm
; solid infill extrusion width = 0.48mm
; top infill extrusion width = 0.48mm

M107
M190 S65 ; set bed temperature
M104 S210 ; set temperature
G28 ; home all axes
M109 S210 ; wait for temperature to be reached
G21 ; set units to millimeters
G90 ; use absolute coordinates
M82 ; use absolute distances for extrusion
G92 E0
G1 E-1.00000 F1800.00000
G92 E0
G1 Z0.350 F7200.000
G1 X66.115 Y52.329 F7200.000
G1 E1.00000 F1800.00000
G1 X67.868 Y50.850 E1.07240 F900.000
G1 X70.020 Y50.057 E1.14481
G1 X71.200 Y49.952 E1.18220
G1 X93.900 Y49.952 E1.89883
G1 X96.159 Y50.348 E1.97123
G1 X98.584 Y51.892 E2.06200 F900.000
G1 X127.985 Y81.292 E3.37459
G1 X128.759 Y82.223 E3.41284
G1 X134.259 Y90.223 E3.71932
G1 X135.212 Y92.309 E3.79172
G1 X135.425 Y93.976 E3.84478
G1 X135.425 Y122.160 E4.73453
G1 X135.028 Y124.419 E4.80693
G1 X133.484 Y126.845 E4.89769
G1 X112.221 Y148.108 E5.84702
G1 X110.343 Y149.425 E5.91943
G1 X108.129 Y150.022 E5.99183
G1 X105.843 Y149.829 E6.06423
G1 X103.777 Y148.878 E6.13605
G1 X67.440 Y123.831 E7.52930
G1 X65.806 Y122.222 E7.60171
G1 X64.818 Y120.152 E7.67411
G1 X64.575 Y118.376 E7.73070
G1 X64.575 Y56.576 E9.68170
G1 X64.972 Y54.318 E9.75410
G1 X66.086 Y52.381 E9.82461
G1 E8.82461 F1800.00000
G92 E0
G1 X119.556 Y98.364 F7200.000
G1 E1.00000 F1800.00000
G1 X121.483 Y100.292 E1.08605 F540.000
G1 X120.856 Y102.633 E1.16257
G1 X100.687 Y122.802 E2.06301
G1 X98.346 Y123.429 E2.13954
G1 X96.418 Y121.502 E2.22559
G1 X97.046 Y119.160 E2.30212
G1 X117.214 Y98.992 E3.20256
G1 X119.498 Y98.380 E3.27719
G1 X120.786 Y100.479 F7200.000
G1 X120.295 Y102.310 E3.33704 F378.000
G1 X100.364 Y122.241 E4.22691
G1 X98.533 Y122.732 E4.28676
G1 X97.115 Y121.315 E4.35003
G1 X97.606 Y119.484 E4.40988
G1 X117.538 Y99.552 E5.29975
G1 X119.369 Y99.061 E5.35961
G1 X120.744 Y100.436 E5.42098
G1 X121.149 Y100.648 F7200.000
G1 X111.026 Y92.976 F7200.000
G1 X109.613 Y95.424 E5.51019 F540.000
G1 X106.787 Y95.424 E5.59939
G1 X105.374 Y92.976 E5.68860
G1 X106.787 Y90.529 E5.77781
G1 X109.613 Y90.529 E5.86701
G1 X110.996 Y92.924 E5.95432
G1 X110.304 Y92.976 F7200.000
G1 X109.252 Y94.799 E6.02075 F540.000
G1 X107.148 Y94.799 E6.08718
G1 X106.096 Y92.976 E6.15360
G1 X107.148 Y91.154 E6.22003
G1 X109.252 Y91.154 E6.28646
G1 X110.274 Y92.924 E6.35099
G1 X110.611 Y93.234 F7200.000
G1 E5.35099 F1800.00000
G92 E0
G1 X100.826 Y92.976 F7200.000
G1 E1.00000 F1800.00000
G1 X99.413 Y95.424 E1.08921 F540.000
G1 X96.587 Y95.424 E1.17841
G1 X95.174 Y92.976 E1.26762
G1 X96.587 Y90.529 E1.35682
G1 X99.413 Y90.529 E1.44603
G1 X100.796 Y92.924 E1.53334
G1 X100.104 Y92.976 F7200.000
G1 X99.052 Y94.799 E1.59977 F540.000
G1 X96.948 Y94.799 E1.66620
G1 X95.896 Y92.976 E1.73262
G1 X96.948 Y91.154 E1.79905
G1 X99.052 Y91.154 E1.86548
G1 X100.074 Y92.924 E1.93001
G1 X100.411 Y93.234 F7200.000
G1 E0.93001 F1800.00000
G92 E0
G1 X90.626 Y92.976 F7200.000
G1 E1.00000 F1800.00000
G1 X89.213 Y95.424 E1.08921 F540.000
G1 X86.387 Y95.424 E1.17841
G1 X84.974 Y92.976 E1.26762
G1 X86.387 Y90.529 E1.35682
G1 X89.213 Y90.529 E1.44603
G1 X90.596 Y92.924 E1.53334
G1 X89.904 Y92.976 F7200.000
G1 X88.852 Y94.799 E1.59977 F540.000
G1 X86.748 Y94.799 E1.66620
G1 X85.696 Y92.976 E1.73262
G1 X86.748 Y91.154 E1.79905
G1 X88.852 Y91.154 E1.86548
G1 X89.874 Y92.924 E1.93001
G1 X90.211 Y93.234 F7200.000
G1 E0.93001 F1800.00000
G92 E0
G1 X80.426 Y92.976 F7200.000
G1 E1.00000 F1800.00000
G1 X79.013 Y95.424 E1.08921 F540.000
G1 X76.187 Y95.424 E1.17841
G1 X74.774 Y92.976 E1.26762
G1 X76.187 Y90.529 E1.35682
G1 X79.013 Y90.529 E1.44603
G1 X80.396 Y92.924 E1.53334
G1 X79.704 Y92.976 F7200.000
G1 X78.652 Y94.799 E1.59977 F540.000
G1 X76.548 Y94.799 E1.66620
G1 X75.496 Y92.976 E1.73262
G1 X76.548 Y91.154 E1.79905
G1 X78.652 Y91.154 E1.86548
G1 X79.674 Y92.924 E1.93001
G1 X80.011 Y93.234 F7200.000
G1 E0.93001 F1800.00000
G92 E0
G1 X106.160 Y132.147 F7200.000
G1 E1.00000 F1800.00000
G1 X109.489 Y131.255 E1.10883 F540.000
G1 X111.927 Y133.693 E1.21766
G1 X111.035 Y137.022 E1.32649
G1 X107.705 Y137.915 E1.43532
G1 X105.267 Y135.477 E1.54415
G1 X106.144 Y132.205 E1.65108
G1 X106.670 Y132.657 F7200.000
G1 X109.303 Y131.952 E1.73713 F540.000
G1 X111.230 Y133.879 E1.82318
G1 X110.525 Y136.512 E1.90923
G1 X107.892 Y137.218 E1.99528
G1 X105.964 Y135.290 E2.08133
G1 X106.654 Y132.715 E2.16549
G1 X107.180 Y133.168 F7200.000
G1 X109.116 Y132.649 E2.22876 F540.000
G1 X110.533 Y134.066 E2.29203
G1 X110.014 Y136.002 E2.35530
G1 X108.078 Y136.521 E2.41857
G1 X106.661 Y135.104 E2.48184
G1 X107.164 Y133.226 E2.54322
G1 X107.145 Y132.769 F7200.000
G1 X117.995 Y122.749 F7200.000
G1 X118.888 Y119.419 E2.65205 F540.000
G1 X121.287 Y118.776 E2.73045
G1 X122.217 Y118.527 E2.76087
G1 X124.655 Y120.965 E2.86970
G1 X123.763 Y124.294 E2.97853
G1 X120.433 Y125.187 E3.08736
G1 X118.038 Y122.792 E3.19429
G1 X118.692 Y122.562 F7200.000
G1 X119.398 Y119.929 E3.28034 F540.000
G1 X121.448 Y119.380 E3.34736
G1 X122.031 Y119.224 E3.36639
G1 X123.958 Y121.151 E3.45244
G1 X123.252 Y123.784 E3.53849
G1 X120.620 Y124.490 E3.62453
G1 X118.735 Y122.605 E3.70869
G1 X119.389 Y122.376 F7200.000
G1 X119.908 Y120.440 E3.77196 F540.000
G1 X121.610 Y119.984 E3.82759
G1 X121.844 Y119.921 E3.83523
G1 X123.261 Y121.338 E3.89850
G1 X122.742 Y123.274 E3.96177
G1 X120.806 Y123.793 E4.02504
G1 X119.432 Y122.418 E4.08641
G1 X119.027 Y122.207 F7200.000
G1 X98.159 Y124.126 F7200.000
G1 X101.011 Y123.362 E4.17961 F540.000
G1 X121.416 Y102.957 E5.09062
G1 X122.180 Y100.105 E5.18383
G1 X119.743 Y97.667 E5.29265
G1 X116.891 Y98.431 E5.38586
G1 X98.546 Y116.777 E6.20490
G1 X89.961 Y116.777 E6.47589
G1 X91.347 Y114.376 E6.56339
G1 X89.574 Y111.304 E6.67538
G1 X86.026 Y111.304 E6.78736
G1 X84.253 Y114.376 E6.89935
G1 X85.639 Y116.777 E6.98684
G1 X79.761 Y116.777 E7.17238
G1 X81.147 Y114.376 E7.25988
G1 X79.374 Y111.304 E7.37186
G1 X75.826 Y111.304 E7.48385
G1 X74.053 Y114.376 E7.59583
G1 X75.439 Y116.777 E7.68333
G1 X72.800 Y116.777 E7.76663
G1 X72.800 Y90.576 E8.59377
G1 X75.439 Y90.576 E8.67707
G1 X74.053 Y92.976 E8.76457
G1 X75.826 Y96.048 E8.87655
G1 X79.374 Y96.048 E8.98854
G1 X81.147 Y92.976 E9.10052
G1 X79.761 Y90.576 E9.18802
G1 X85.639 Y90.576 E9.37355
G1 X84.253 Y92.976 E9.46105
G1 X86.026 Y96.048 E9.57304
G1 X89.574 Y96.048 E9.68502
G1 X91.347 Y92.976 E9.79701
G1 X89.961 Y90.576 E9.88450
G1 X95.839 Y90.576 E10.07004
G1 X94.453 Y92.976 E10.15753
G1 X96.226 Y96.048 E10.26952
G1 X99.774 Y96.048 E10.38150
G1 X101.547 Y92.976 E10.49349
G1 X100.161 Y90.576 E10.58099
G1 X106.039 Y90.576 E10.76652
G1 X104.653 Y92.976 E10.85402
G1 X106.426 Y96.048 E10.96600
G1 X109.974 Y96.048 E11.07799
G1 X111.747 Y92.976 E11.18997
G1 X110.361 Y90.576 E11.27747
G1 X123.137 Y90.576 E11.68080
G1 X127.200 Y94.639 E11.86219
G1 X127.200 Y121.498 E12.71010
G1 X107.537 Y141.161 E13.58801
G1 X90.707 Y124.332 E14.33937
G1 X96.196 Y118.843 E14.58444
G1 X96.445 Y118.986 E14.59353
G1 X95.721 Y121.688 E14.68184
G1 X98.117 Y124.084 E14.78877
G1 E13.78877 F1800.00000
G92 E0
G1 X80.426 Y114.376 F7200.000
G1 E1.00000 F1800.00000
G1 X79.013 Y116.823 E1.08921 F540.000
G1 X76.187 Y116.823 E1.17841
G1 X74.774 Y114.376 E1.26762
G1 X76.187 Y111.929 E1.35682
G1 X79.013 Y111.929 E1.44603
G1 X80.396 Y114.324 E1.53334
G1 X79.704 Y114.376 F7200.000
G1 X78.652 Y116.199 E1.59976 F540.000
G1 X76.548 Y116.199 E1.66619
G1 X75.496 Y114.376 E1.73262
G1 X76.548 Y112.554 E1.79904
G1 X78.652 Y112.554 E1.86547
G1 X79.674 Y114.324 E1.93000
G1 X80.011 Y114.634 F7200.000
G1 X84.974 Y114.376 F7200.000
G1 X86.387 Y111.929 E2.01921 F540.000
G1 X89.213 Y111.929 E2.10841
G1 X90.626 Y114.376 E2.19762
G1 X89.213 Y116.823 E2.28682
G1 X86.387 Y116.823 E2.37603
G1 X85.004 Y114.428 E2.46334
G1 X85.696 Y114.376 F7200.000
G1 X86.748 Y112.554 E2.52977 F540.000
G1 X88.852 Y112.554 E2.59619
G1 X89.904 Y114.376 E2.66262
G1 X88.852 Y116.199 E2.72904
G1 X86.748 Y116.199 E2.79547
G1 X85.726 Y114.428 E2.86000
G1 X85.389 Y114.119 F7200.000
G1 E1.86000 F1800.00000
G92 E0
G1 X96.754 Y117.402 F7200.000
G1 E1.00000 F1800.00000
G1 X72.175 Y117.402 E1.77594 F540.000
G1 X72.175 Y89.951 E2.64253
G1 X123.396 Y89.951 E4.25956
G1 X127.825 Y94.380 E4.45730
G1 X127.825 Y121.756 E5.32155
G1 X107.537 Y142.045 E6.22736
G1 X89.823 Y124.332 E7.01818
G1 X96.711 Y117.444 E7.32569
G1 X95.245 Y118.026 F7200.000
G1 X71.550 Y118.026 E8.07373 F378.000
G1 X71.550 Y89.326 E8.97978
G1 X123.655 Y89.326 E10.62471
G1 X128.450 Y94.121 E10.83878
G1 X128.450 Y122.015 E11.71938
G1 X107.537 Y142.929 E12.65308
G1 X88.940 Y124.332 E13.48336
G1 X95.203 Y118.069 E13.76297
G1 X95.349 Y117.640 F7200.000
G1 X96.515 Y118.666 F7200.000
G1 X98.091 Y117.089 E13.91221 F360.000
G1 X95.956 Y119.547 F7200.000
G1 X95.270 Y120.735 E13.95550 F360.000
G1 X112.120 Y135.612 F7200.000
G1 X111.434 Y136.800 E13.99880 F360.000
G1 X110.812 Y137.422 F7200.000
G1 X109.624 Y138.107 E14.04209 F360.000
G1 X122.353 Y125.379 F7200.000
G1 X123.540 Y124.694 E14.08539 F360.000
G1 X124.162 Y124.072 F7200.000
G1 X124.848 Y122.884 E14.12869 F360.000
G1 X125.778 Y122.434 F7200.000
G1 X124.866 Y121.523 E14.16964 F900.000
G1 X125.054 Y120.821 E14.19272
G1 X126.222 Y121.989 E14.24521
G1 X126.667 Y121.545 E14.26520
G1 X114.977 Y109.854 E14.79060
G1 X114.532 Y110.299 E14.81059
G1 X122.361 Y118.128 E15.16244
G1 X121.659 Y118.316 E15.18552
G1 X114.087 Y110.743 E15.52582
G1 X113.642 Y111.188 E15.54581
G1 X120.957 Y118.504 E15.87458
G1 X120.256 Y118.692 E15.89766
G1 X113.197 Y111.633 E16.21489
G1 X112.753 Y112.078 E16.23487
G1 X119.554 Y118.880 E16.54056
G1 X118.853 Y119.068 E16.56364
G1 X112.308 Y112.523 E16.85778
G1 X111.863 Y112.967 E16.87777
G1 X118.482 Y119.586 E17.17523
G1 X118.294 Y120.288 E17.19831
G1 X111.418 Y113.412 E17.50732
G1 X110.973 Y113.857 E17.52730
G1 X118.106 Y120.989 E17.84785
G1 X117.918 Y121.691 E17.87093
G1 X110.529 Y114.302 E18.20301
G1 X110.084 Y114.747 E18.22300
G1 X117.730 Y122.392 E18.56662
G1 X122.108 Y125.881 F7200.000
G1 X121.491 Y125.264 E18.59436 F900.000
G1 X120.789 Y125.452 E18.61744
G1 X121.775 Y126.437 E18.66171
G1 X121.330 Y126.882 E18.68170
G1 X109.639 Y115.191 E19.20710
G1 X109.194 Y115.636 E19.22709
G1 X120.885 Y127.327 E19.75249
G1 X120.440 Y127.772 E19.77248
G1 X108.749 Y116.081 E20.29788
G1 X108.305 Y116.526 E20.31787
G1 X119.995 Y128.216 E20.84327
G1 X119.551 Y128.661 E20.86326
G1 X107.860 Y116.970 E21.38866
G1 X107.415 Y117.415 E21.40865
G1 X119.106 Y129.106 E21.93405
G1 X118.661 Y129.551 E21.95404
G1 X106.970 Y117.860 E22.47944
G1 X106.526 Y118.305 E22.49943
G1 X118.216 Y129.996 E23.02483
G1 X117.771 Y130.440 E23.04482
G1 X106.081 Y118.750 E23.57022
G1 X105.636 Y119.194 E23.59021
G1 X117.327 Y130.885 E24.11561
G1 X116.882 Y131.330 E24.13560
G1 X105.191 Y119.639 E24.66100
G1 X104.746 Y120.084 E24.68099
G1 X116.437 Y131.775 E25.20639
G1 X115.992 Y132.219 E25.22638
G1 X104.302 Y120.529 E25.75178
G1 X103.857 Y120.974 E25.77177
G1 X115.547 Y132.664 E26.29717
G1 X115.103 Y133.109 E26.31716
G1 X103.412 Y121.418 E26.84256
G1 X102.967 Y121.863 E26.86255
G1 X114.658 Y133.554 E27.38795
G1 X114.213 Y133.999 E27.40794
G1 X102.522 Y122.308 E27.93334
G1 X102.078 Y122.753 E27.95333
G1 X113.768 Y134.443 E28.47873
G1 X112.254 Y133.819 F7200.000
G1 X113.324 Y134.888 E28.52678 F900.000
G1 X112.879 Y135.333 E28.54677
G1 X112.066 Y134.521 E28.58329
G1 X109.363 Y130.928 F7200.000
G1 X101.633 Y123.198 E28.93070 F900.000
G1 X101.188 Y123.642 E28.95069
G1 X108.661 Y131.116 E29.28656
G1 X107.960 Y131.304 E29.30964
G1 X100.513 Y123.856 E29.64433
G1 X99.811 Y124.044 E29.66741
G1 X107.258 Y131.492 E30.00210
G1 X106.557 Y131.680 E30.02519
G1 X99.109 Y124.232 E30.35988
G1 X98.408 Y124.420 E30.38296
G1 X105.870 Y131.882 E30.71830
G1 X104.930 Y135.390 F7200.000
G1 X92.518 Y122.979 E31.27610 F900.000
G1 X92.963 Y122.534 E31.29609
G1 X105.118 Y134.688 E31.84234
G1 X105.306 Y133.987 E31.86543
G1 X93.408 Y122.089 E32.40014
G1 X93.852 Y121.644 E32.42013
G1 X105.494 Y133.285 E32.94330
G1 X105.682 Y132.584 E32.96638
G1 X94.297 Y121.199 E33.47802
G1 X92.073 Y123.423 F7200.000
G1 X108.431 Y139.781 E34.21316 F900.000
G1 X107.986 Y140.226 E34.23314
G1 X91.628 Y123.868 E34.96828
G1 E33.96828 F1800.00000
G92 E0
G1 X90.822 Y115.945 F7200.000
G1 E1.00000 F1800.00000
G1 X91.275 Y116.398 E1.02034 F900.000
G1 X92.165 Y116.398 E1.04861
G1 X91.148 Y115.382 E1.09429
G1 X91.474 Y114.818 E1.11499
G1 X93.054 Y116.398 E1.18602
G1 X93.944 Y116.398 E1.21429
G1 X91.799 Y114.254 E1.31066
G1 X90.611 Y112.175 F7200.000
G1 X94.833 Y116.398 E1.50044 F900.000
G1 X95.723 Y116.398 E1.52870
G1 X75.752 Y96.427 E2.42624
G1 X76.641 Y96.427 E2.45451
G1 X96.612 Y116.398 E3.35204
G1 X97.418 Y116.314 E3.37779
G1 X77.531 Y96.427 E4.27157
G1 X78.421 Y96.427 E4.29984
G1 X98.392 Y116.398 E5.19737
G1 X98.874 Y115.991 E5.21743
G1 X79.310 Y96.427 E6.09666
G1 X79.779 Y96.006 F7200.000
G1 X99.319 Y115.546 E6.97480 F900.000
G1 X99.763 Y115.101 E6.99479
G1 X80.105 Y95.442 E7.87829
G1 X80.430 Y94.878 E7.89898
G1 X100.208 Y114.656 E8.78784
G1 X100.653 Y114.212 E8.80783
G1 X80.756 Y94.314 E9.70204
G1 X81.081 Y93.750 E9.72273
G1 X101.098 Y113.767 E10.62230
G1 X101.543 Y113.322 E10.64229
G1 X81.407 Y93.186 E11.54722
G1 X83.869 Y92.980 F7200.000
G1 X81.844 Y90.955 E11.63824 F900.000
G1 X82.734 Y90.955 E11.66651
G1 X84.195 Y92.416 E11.73218
G1 X84.521 Y91.852 E11.75288
G1 X83.623 Y90.955 E11.79321
G1 X84.513 Y90.955 E11.82148
G1 X84.846 Y91.288 E11.83646
G1 X84.733 Y94.733 F7200.000
G1 X80.955 Y90.955 E12.00626 F900.000
G1 X81.128 Y92.018 E12.04048
G1 X101.987 Y112.877 E12.97794
G1 X102.432 Y112.432 E12.99793
G1 X86.427 Y96.427 E13.71724
G1 X87.316 Y96.427 E13.74551
G1 X102.877 Y111.988 E14.44483
G1 X103.322 Y111.543 E14.46482
G1 X88.206 Y96.427 E15.14415
G1 X89.096 Y96.427 E15.17242
G1 X103.767 Y111.098 E15.83176
G1 X104.211 Y110.653 E15.85175
G1 X89.827 Y96.269 E16.49819
G1 X90.153 Y95.705 E16.51889
G1 X104.656 Y110.208 E17.17069
G1 X105.101 Y109.764 E17.19068
G1 X90.479 Y95.141 E17.84783
G1 X90.804 Y94.577 E17.86853
G1 X105.546 Y109.319 E18.53104
G1 X105.990 Y108.874 E18.55103
G1 X91.130 Y94.013 E19.21890
G1 X91.455 Y93.449 E19.23959
G1 X106.435 Y108.429 E19.91281
G1 X106.880 Y107.984 E19.93280
G1 X91.781 Y92.885 E20.61139
G1 X94.243 Y92.679 F7200.000
G1 X92.519 Y90.955 E20.68888 F900.000
G1 X93.409 Y90.955 E20.71714
G1 X94.569 Y92.115 E20.76929
G1 X94.895 Y91.551 E20.78998
G1 X94.298 Y90.955 E20.81678
G1 X94.284 Y93.609 F7200.000
G1 X91.630 Y90.955 E20.93607 F900.000
G1 X90.740 Y90.955 E20.96434
G1 X107.325 Y107.540 E21.70970
G1 X107.770 Y107.095 E21.72969
G1 X97.102 Y96.427 E22.20912
G1 X97.991 Y96.427 E22.23739
G1 X108.214 Y106.650 E22.69683
G1 X108.659 Y106.205 E22.71682
G1 X98.881 Y96.427 E23.15628
G1 X99.770 Y96.427 E23.18455
G1 X109.104 Y105.761 E23.60401
G1 X109.549 Y105.316 E23.62400
G1 X100.201 Y95.968 E24.04410
G1 X100.527 Y95.404 E24.06480
G1 X109.994 Y104.871 E24.49025
G1 X110.438 Y104.426 E24.51024
G1 X100.852 Y94.840 E24.94105
G1 X101.178 Y94.276 E24.96175
G1 X110.883 Y103.981 E25.39792
G1 X111.328 Y103.537 E25.41791
G1 X101.504 Y93.712 E25.85943
G1 X101.829 Y93.148 E25.88013
G1 X111.773 Y103.092 E26.32701
G1 X112.218 Y102.647 E26.34700
G1 X101.446 Y91.875 E26.83111
G1 X104.973 Y90.955 F7200.000
G1 X105.268 Y91.250 E26.84438 F900.000
G1 X104.943 Y91.814 E26.86507
G1 X104.084 Y90.955 E26.90368
G1 X103.194 Y90.955 E26.93195
G1 X104.617 Y92.378 E26.99591
G1 X104.292 Y92.942 E27.01661
G1 X102.304 Y90.955 E27.10591
G1 X101.415 Y90.955 E27.13418
G1 X105.050 Y94.590 E27.29756
G1 X106.887 Y96.427 F7200.000
G1 X112.662 Y102.202 E27.55710 F900.000
G1 X113.107 Y101.757 E27.57709
G1 X107.777 Y96.427 E27.81665
G1 X108.666 Y96.427 E27.84492
G1 X113.552 Y101.313 E28.06449
G1 X113.997 Y100.868 E28.08448
G1 X109.556 Y96.427 E28.28406
G1 X110.249 Y96.231 E28.30696
G1 X114.441 Y100.423 E28.49536
G1 X114.886 Y99.978 E28.51535
G1 X110.575 Y95.667 E28.70911
G1 X110.901 Y95.103 E28.72980
G1 X115.331 Y99.533 E28.92892
G1 X115.776 Y99.089 E28.94891
G1 X111.226 Y94.539 E29.15338
